X:1
T:Title
%%score { ( 1 3 ) | 2 }
L:1/8
M:6/4
K:Eb
V:1 treble nm="Grand Piano"
V:3 treble 
V:2 bass 
V:1
 z6 z4[Q:1/4=126] B,2 | E6 [DF]6 | [EG]2 [GB]2 [Ac]2 [GB]2 G2 E2 | [EG]6 [DF]6 | G6- G4 F2 | %5
 E6 [DF]6 | [EG]2 [GB]2 [Ac]2 [GB]2 [Gc]2 [Ge]2 | [Fd]6 [Ec]6 | [B,DB]6- [B,DB]4 [DAB]2 | %9
 [EGB]6 [EAc]6 | [EGB]2 [B,EG]2 [B,FA]2 [EGB]2 [EAc]2 [EGB]2 | [DGB]6 [DFA]6 | %12
 [DFA]2 [FAd]2 [EAc]2 [DAB]2 [Ac]2 [Ad]2 | [Ge]6 [Bd]6 | c2 =B2 c2 e2 _B2 c2 | G6 [DF]6 | %16
[M:5/4] E2- E2- E6 |[M:1/4] B2 |[M:6/4] B6 z6 | A12 | A6 z6 | G12 | [Ge]6 [Bd]6 | %23
 c2 =B2 c2 e2 _B2 c2 | G6 [DF]6 |[M:5/4] E2- E2- E6 |] %26
V:2
 z6 z4 [E,G,]2 | [E,G,B,]6 [B,,B,]6 | [E,B,]2 [E,E]2 [E,E]2 [E,E]2 [E,B,E]2 [E,G,]2 | %3
 [B,,B,]6 [B,,B,]6 | [E,B,E]6- [E,B,E]4 [B,,A,B,]2 | [E,G,B,]6 [B,,B,]6 | %6
 [E,B,]2 [E,E]2 [E,E]2 [E,E]2 [E,B,]2 [E,B,]2 | [F,B,]6 [F,=A,]6 | B,,6- B,,4 B,,2 | E,6 E,6 | %10
 E,2 E,2 E,2 E,2 E,2 E,2 | B,,6 B,,6 | B,,2 B,,2 B,,2 B,,2 [B,,B,]2 [B,,B,]2 | %13
 [E,B,]6[K:treble] [G,E]6 | [A,EA]2 [A,EA]2 [A,EA]2 [G,B,E]2[K:bass] [G,_DE]2 [A,CE]2 | %15
 [B,E]6 [B,,A,]6 |[M:5/4] [E,G,]2- [E,G,]2- [E,G,]6 |[M:1/4] z2 | %18
[M:6/4] G2 [E,E]2 [E,C]2 [E,B,E]6 | [F,A,C]2 [F,A,]2 [F,A,]2 .[F,A,]6 | %20
 [B,,F,]2 [B,,F,]2 [B,,F,]2 [B,,B,]6 | [E,B,E]2 [E,B,]2 [E,B,]2 [E,B,]4 [E,B,]2 | %22
 [E,B,]6[K:treble] [G,E]6 | [A,EA]2 [A,EA]2 [A,EA]2 [G,B,E]2[K:bass] [G,_DE]2 [A,CE]2 | %24
 [B,E]6 [B,,A,]6 |[M:5/4] [E,G,]2- [E,G,]2- [E,G,]6 |] %26
V:3
 x12 | x12 | x12 | x12 | x12 | x12 | x12 | x12 | x12 | x12 | x12 | x12 | x12 | x12 | x12 | x12 | %16
[M:5/4] x10 |[M:1/4] x2 |[M:6/4] z2 G2 F2 G6 | z2 C2 C2 C4 A2 | D2 D2 D2 [DF]6 | %21
 z2 E2 E2 E4 [GB]2 | x12 | x12 | x12 |[M:5/4] x10 |] %26

